images/uma.svg

<svg height="250" viewBox="0 0 250 250" width="250" xmlns="http://www.w3.org/2000/svg"><g fill="#ff4a4a"><path d="m160.195312 249.609375h-10.585937c-1.960937 0-3.628906-6.25-3.628906-14.453125v-110.9375l-18.53125 46.09375c-1.566407 3.90625-3.527344 3.90625-5.097657 0l-18.429687-46.09375v110.9375c0 7.8125-1.570313 14.453125-3.628906 14.453125h-10.488281c-1.960938 0-3.628907-6.25-3.628907-14.453125v-214.0625c0-10.546875 2.15625-19.140625 4.804688-19.140625.980469 0 1.863281 1.171875 2.648437 3.515625l29.214844 80.078125c1.175781 3.515625 2.84375 3.515625 4.019531 0l29.214844-80.078125c2.15625-5.859375 5.195313-3.515625 6.667969 5.078125.585937 3.125.785156 7.03125.882812 10.546875v214.0625c.097656 7.8125-1.472656 14.453125-3.433594 14.453125zm0 0"/><path d="m70.390625 249.21875h-65.683594c-2.648437 0-4.8046872-8.59375-4.8046872-19.140625v-215.234375c.0976562-8.203125 1.6679682-14.453125 3.7265622-14.453125h10.585938c1.960937 0 3.628906 6.25 3.628906 14.453125v163.671875h39.804688v-163.671875c0-7.8125 1.566406-14.453125 3.625-14.453125h10.296874c1.960938 0 3.625 6.25 3.625 14.453125v215.234375c0 10.546875-2.15625 19.140625-4.804687 19.140625zm0 0"/><path d="m179.609375.390625h65.683594c2.648437 0 4.804687 8.59375 4.804687 19.140625v215.234375c0 7.8125-1.566406 14.453125-3.527344 14.453125h-10.589843c-1.960938 0-3.628907-6.25-3.628907-14.453125v-154.296875c0-5.078125-1.078124-9.375-2.351562-9.375h-35c-1.273438 0-2.351562 4.296875-2.351562 9.375v154.296875c0 7.8125-1.570313 14.453125-3.628907 14.453125h-10.589843c-1.960938 0-3.625-6.25-3.625-14.453125v-215.234375c0-10.546875 2.15625-19.140625 4.804687-19.140625zm0 0"/><path d="m207.15625 116.40625h10.492188c1.960937 0 3.625 6.25 3.625 14.453125v42.578125c0 7.8125-1.566407 14.453125-3.625 14.453125h-10.492188c-1.960938 0-3.625-6.25-3.625-14.453125v-42.96875c0-7.8125 1.664062-14.0625 3.625-14.0625zm0 0"/></g></svg>

<!-- Generator: Adobe Illustrator 24.0.0, SVG Export Plug-In . SVG Version: 6.00 Build 0)  -->
<svg xmlns="http://www.w3.org/2000/svg" xmlns:xlink="http://www.w3.org/1999/xlink" width="250px" height="250px" viewBox="0 0 250 250" version="1.1">
<g id="surface1">
<path style=" stroke:none;fill-rule:nonzero;fill:rgb(100%,29.019609%,29.019609%);fill-opacity:1;" d="M 160.195312 249.609375 L 149.609375 249.609375 C 147.648438 249.609375 145.980469 243.359375 145.980469 235.15625 L 145.980469 124.21875 L 127.449219 170.3125 C 125.882812 174.21875 123.921875 174.21875 122.351562 170.3125 L 103.921875 124.21875 L 103.921875 235.15625 C 103.921875 242.96875 102.351562 249.609375 100.292969 249.609375 L 89.804688 249.609375 C 87.84375 249.609375 86.175781 243.359375 86.175781 235.15625 L 86.175781 21.09375 C 86.175781 10.546875 88.332031 1.953125 90.980469 1.953125 C 91.960938 1.953125 92.84375 3.125 93.628906 5.46875 L 122.84375 85.546875 C 124.019531 89.0625 125.6875 89.0625 126.863281 85.546875 L 156.078125 5.46875 C 158.234375 -0.390625 161.273438 1.953125 162.746094 10.546875 C 163.332031 13.671875 163.53125 17.578125 163.628906 21.09375 L 163.628906 235.15625 C 163.726562 242.96875 162.15625 249.609375 160.195312 249.609375 Z M 160.195312 249.609375 "/>
<path style=" stroke:none;fill-rule:nonzero;fill:rgb(100%,29.019609%,29.019609%);fill-opacity:1;" d="M 70.390625 249.21875 L 4.707031 249.21875 C 2.058594 249.21875 -0.0976562 240.625 -0.0976562 230.078125 L -0.0976562 14.84375 C 0 6.640625 1.570312 0.390625 3.628906 0.390625 L 14.214844 0.390625 C 16.175781 0.390625 17.84375 6.640625 17.84375 14.84375 L 17.84375 178.515625 L 57.648438 178.515625 L 57.648438 14.84375 C 57.648438 7.03125 59.214844 0.390625 61.273438 0.390625 L 71.570312 0.390625 C 73.53125 0.390625 75.195312 6.640625 75.195312 14.84375 L 75.195312 230.078125 C 75.195312 240.625 73.039062 249.21875 70.390625 249.21875 Z M 70.390625 249.21875 "/>
<path style=" stroke:none;fill-rule:nonzero;fill:rgb(100%,29.019609%,29.019609%);fill-opacity:1;" d="M 179.609375 0.390625 L 245.292969 0.390625 C 247.941406 0.390625 250.097656 8.984375 250.097656 19.53125 L 250.097656 234.765625 C 250.097656 242.578125 248.53125 249.21875 246.570312 249.21875 L 235.980469 249.21875 C 234.019531 249.21875 232.351562 242.96875 232.351562 234.765625 L 232.351562 80.46875 C 232.351562 75.390625 231.273438 71.09375 230 71.09375 L 195 71.09375 C 193.726562 71.09375 192.648438 75.390625 192.648438 80.46875 L 192.648438 234.765625 C 192.648438 242.578125 191.078125 249.21875 189.019531 249.21875 L 178.429688 249.21875 C 176.46875 249.21875 174.804688 242.96875 174.804688 234.765625 L 174.804688 19.53125 C 174.804688 8.984375 176.960938 0.390625 179.609375 0.390625 Z M 179.609375 0.390625 "/>
<path style=" stroke:none;fill-rule:nonzero;fill:rgb(100%,29.019609%,29.019609%);fill-opacity:1;" d="M 207.15625 116.40625 L 217.648438 116.40625 C 219.609375 116.40625 221.273438 122.65625 221.273438 130.859375 L 221.273438 173.4375 C 221.273438 181.25 219.707031 187.890625 217.648438 187.890625 L 207.15625 187.890625 C 205.195312 187.890625 203.53125 181.640625 203.53125 173.4375 L 203.53125 130.46875 C 203.53125 122.65625 205.195312 116.40625 207.15625 116.40625 Z M 207.15625 116.40625 "/>
</g>
</svg>
